neru-light-classic/32x32/start/xfce4-whiskermenu.svg

<?xml version="1.0" encoding="UTF-8" standalone="no"?>
<svg
   xmlns:dc="http://purl.org/dc/elements/1.1/"
   xmlns:cc="http://creativecommons.org/ns#"
   xmlns:rdf="http://www.w3.org/1999/02/22-rdf-syntax-ns#"
   xmlns:svg="http://www.w3.org/2000/svg"
   xmlns="http://www.w3.org/2000/svg"
   xmlns:xlink="http://www.w3.org/1999/xlink"
   xmlns:sodipodi="http://sodipodi.sourceforge.net/DTD/sodipodi-0.dtd"
   xmlns:inkscape="http://www.inkscape.org/namespaces/inkscape"
   width="32"
   height="32"
   version="1"
   id="svg16"
   sodipodi:docname="xfce4-whiskermenu.svg"
   inkscape:version="0.92.4 5da689c313, 2019-01-14">
  <metadata
     id="metadata22">
    <rdf:RDF>
      <cc:Work
         rdf:about="">
        <dc:format>image/svg+xml</dc:format>
        <dc:type
           rdf:resource="http://purl.org/dc/dcmitype/StillImage" />
        <dc:title />
      </cc:Work>
    </rdf:RDF>
  </metadata>
  <defs
     id="defs20">
    <linearGradient
       inkscape:collect="always"
       id="linearGradient818">
      <stop
         style="stop-color:#6c7482;stop-opacity:1"
         offset="0"
         id="stop814" />
      <stop
         style="stop-color:#a6c4d2;stop-opacity:1"
         offset="1"
         id="stop816" />
    </linearGradient>
    <linearGradient
       inkscape:collect="always"
       xlink:href="#linearGradient818"
       id="linearGradient820"
       x1="1.8135287"
       y1="30.18647"
       x2="30.186472"
       y2="1.8720293"
       gradientUnits="userSpaceOnUse" />
  </defs>
  <sodipodi:namedview
     pagecolor="#ffffff"
     bordercolor="#666666"
     borderopacity="1"
     objecttolerance="10"
     gridtolerance="10"
     guidetolerance="10"
     inkscape:pageopacity="0"
     inkscape:pageshadow="2"
     inkscape:window-width="861"
     inkscape:window-height="735"
     id="namedview18"
     showgrid="false"
     inkscape:zoom="17.09375"
     inkscape:cx="16"
     inkscape:cy="16"
     inkscape:window-x="478"
     inkscape:window-y="101"
     inkscape:window-maximized="0"
     inkscape:current-layer="svg16" />
  <path
     style="fill:url(#linearGradient820);fill-opacity:1;stroke-width:0.09482725"
     d="m 10.932009,30.092149 c 3.858777,-0.625879 10.017513,-3.120052 14.603105,-5.913979 3.585776,-2.184758 4.808796,-3.706143 4.366668,-5.431941 -0.08248,-0.321952 -0.266616,-0.803146 -0.409188,-1.069309 -0.336357,-0.627957 -1.514581,-1.82235 -2.298,-2.329536 C 25.047588,13.9574 21.528112,12.852798 16.933106,12.126768 15.208061,11.854208 14.831148,11.72092 14.685915,11.3321 14.643096,11.217491 14.6011,10.656125 14.592574,10.084651 14.551341,7.3205231 14.129989,5.5916773 13.254483,4.5945355 12.435211,3.6614357 10.771682,3.7625872 9.9538104,4.7952348 9.1955451,5.7526217 9.1270686,6.897119 9.6744353,9.464218 10.15123,11.700324 10.163699,11.810059 9.9486454,11.87831 9.5991474,11.989231 9.084693,11.639456 8.8081676,11.102885 8.7485236,10.987126 8.5348274,10.432395 8.3333138,9.8701385 7.5459729,7.6733311 6.2695357,6.1491692 5.2145946,6.1461597 4.4969136,6.1443318 3.5485517,6.9753478 3.2325698,7.8834029 2.9429047,8.7158214 3.0035526,10.197075 3.3860925,11.632776 c 0.3823123,1.43486 0.3663105,1.878376 -0.1135379,3.14657 -0.7176813,1.896738 -1.364774,4.979523 -1.4620037,6.965002 -0.091998,1.878741 0.2381564,3.878361 0.8533041,5.168086 0.7942158,1.665156 2.6988134,2.966248 4.7592523,3.251191 0.6976092,0.09646 2.7284647,0.05513 3.5088977,-0.07149 z M 25.667201,12.285331 c 0.96787,-1.02951 3.179789,-5.244979 4.284493,-8.1653644 0.304506,-0.8050024 0.310463,-0.8452792 0.143079,-0.96767 -0.254476,-0.1860789 -0.751698,0.095354 -1.393769,0.7888582 -0.523967,0.5659506 -2.461524,3.7185844 -3.190406,5.1911693 -0.77357,1.5628549 -1.072395,2.8977289 -0.732713,3.2730719 0.247785,0.273797 0.558471,0.23185 0.889318,-0.120064 z m -2.757199,-1.408935 c 0.551672,-1.5220037 0.970967,-4.2201682 1.03343,-6.6500848 0.0443,-1.7219563 0.03112,-1.9959987 -0.10566,-2.2047294 -0.0859,-0.1310986 -0.211355,-0.2383655 -0.278798,-0.2383655 -0.12603,0 -0.546328,0.8324935 -0.718117,1.4224071 -0.23951,0.8224595 -1.053918,6.255951 -1.047304,6.9872946 0.01479,1.640057 0.632618,2.018264 1.116432,0.683478 z"
     id="path4517"
     inkscape:connector-curvature="0"
     sodipodi:nodetypes="csscsscssssscsccsscsccsscsssssscscss" />
</svg>

<svg xmlns="http://www.w3.org/2000/svg" xmlns:xlink="http://www.w3.org/1999/xlink" width="32" height="32" version="1"><defs><linearGradient id="a"><stop offset="0" stop-color="#6c7482"/><stop offset="1" stop-color="#a6c4d2"/></linearGradient><linearGradient xlink:href="#a" id="b" x1="1.814" y1="30.186" x2="30.186" y2="1.872" gradientUnits="userSpaceOnUse"/></defs><path d="M10.932 30.092c3.859-.626 10.018-3.12 14.603-5.914 3.586-2.185 4.809-3.706 4.367-5.432a5.757 5.757 0 0 0-.41-1.07c-.336-.627-1.514-1.821-2.297-2.329-2.147-1.39-5.667-2.494-10.262-3.22-1.725-.273-2.102-.406-2.247-.795-.043-.115-.085-.676-.093-1.247-.042-2.764-.463-4.493-1.339-5.49-.819-.934-2.482-.832-3.3.2-.758.958-.827 2.102-.28 4.67.477 2.235.49 2.345.275 2.413-.35.111-.864-.239-1.14-.775-.06-.116-.274-.67-.476-1.233-.787-2.197-2.063-3.72-3.118-3.724-.718-.002-1.666.83-1.982 1.737-.29.833-.23 2.314.153 3.75.382 1.435.366 1.878-.113 3.146-.718 1.897-1.365 4.98-1.462 6.965-.092 1.88.238 3.879.853 5.168.794 1.666 2.699 2.967 4.76 3.252.697.096 2.728.055 3.508-.072zm14.735-17.807c.968-1.03 3.18-5.245 4.285-8.165.304-.805.31-.845.143-.968-.255-.186-.752.096-1.394.79-.524.565-2.462 3.718-3.19 5.19-.774 1.563-1.073 2.898-.733 3.273.248.274.558.232.89-.12zm-2.757-1.409c.552-1.522.971-4.22 1.033-6.65.045-1.722.032-1.996-.105-2.204-.086-.132-.212-.239-.279-.239-.126 0-.546.833-.718 1.423-.24.822-1.054 6.256-1.047 6.987.014 1.64.632 2.018 1.116.683z" fill="url(#b)"/></svg>
